X:1
T:Rimsky-Korsakov Harmonic Exercises, Modulations (9)
T:Rimsky-Korsakov Harmonic Exercises, Modulations (9)
T:Realizations by S. Shchetnikov
T:"Practical Manual of Harmony" (1885)
C:Realizations by S. Shchetnikov
%%score { ( 1 2 ) | ( 3 4 ) }
L:1/8
Q:1/2=120
M:9/1
K:C
V:1 treble nm="Piano" snm="Pno."
V:2 treble 
V:3 bass 
V:4 bass 
V:1
"""_C:""^C -- (e) -- (B) -- c♯""^Exercise: compose modulations.\nRealizations:\n\n\n""^Modulations into the keys of the third degree of relationship\nthrough the keys of the first degree of relationship\n""_e:""_{" c8 c8 B8"""_e:""_B:""_{" B8"" ^A8"""_B:""_c♯:""_{" B8 ^F8 ^B8 !breath!^c8 |] %1
[M:11/1]"""^C -- (a) -- (E) -- (g♯) -- d♯""_C:""_a:""_{" c8 d8"""_a:""_E:""_{" c8"" B8"""_E:""_g♯:""_{" B8 ^A8 ^A8"""_g♯:""_d♯:""_{" ^G8"" ^F8"" ^E8"" !breath!^F8 |] %2
[M:9/1]"""^C -- (e) -- (B) -- F♯""_C:""_e:""_{" e8 e8 ^d8"""_e:""_B:""_{" e8"" ^c8"""_B:""_F♯:""_{" ^d8 ^c8 ^c8 !breath!^A8 |] %3
"""_C:""_G:""_{""^C -- (G) -- (b) -- f♯" c8 c8"""_G:""_b:""_{" B8"" B8"" ^A8"""_b:""_f♯:""_{" B8 =A8 ^G8 !breath!^F8 |] %4
[M:12/1]"""^C -- (d) -- (A) -- (c♯) -- g♯""_C:""_d:""_{" c8 _B8 A8"""_d:""_A:""_{" d8"" d8"""_A:""_c♯:""_{" ^c8 ^c8 ^B8"""_c♯:""_g♯:""_{" ^c8"" ^A8"" ^A8"" !breath!^G8 |] %5
[M:8/1]"""^a -- (C) -- (f) -- D♭""_a:""_C:""_{" c8 c8 B8"""_C:""_f:""_{" c8"" _B8"""_f:""_D♭:""_{" _A8 _A8 !breath!_A8 |] %6
[M:11/1]"""^a -- (F) -- (b♭) -- (G♭) -- e♭""_a:""_F:""_{" c8 c8"""_b♭:""_F:""_{" c8"" _e8"""_G♭:""_b♭:""_{" _d8 _d8"""_G♭:""_e♭:""_{" _d8"" _c8"" _B8"" _A8"" !breath!_G8 |] %7
[M:8/1]"""^a -- (C) -- (f) -- E♭""_a:""_C:""_{" A8 A8 B8"""_C:""_f:""_{" c8"" _B8"""_f:""_E♭:""_{" _A8 _A8 !breath!G8 |] %8
[M:7/1]"""^a -- (F) -- (b♭) -- G♭""_a:""_F:""_{" E8 E8"""_F:""_b♭:""_{" F8"" F8"""_b♭:""_G♭:""_{" F8 F8 !breath!_G8 |] %9
[M:9/1]"""^a -- (F) -- (b♭) -- A♭""_a:""_F:""_{" A8 _B8"""_F:""_b♭:""_{" A8"" A8"""_b♭:""_A♭:""_{" _B8 _A8 _A8 G8 _A8 |] %10
V:2
"" G8"" ^F8"" ^F8"" G8 ^F8"" ^F8"" ^c8"" ^G8"" ^G8 |] %1
[M:11/1]"" G8"" ^G8"" A8 A8"" ^G8"" ^G8"" ^^F8"" ^D8 ^D8 ^^C8 ^D8 |] %2
[M:9/1]"" c8"" c8"" B8"" B8 ^A8"" B8"" ^A8"" ^G8"" ^F8 |] %3
"" G8"" ^F8"" G8 G8 ^F8"" ^F8"" ^F8"" ^E8"" ^C8 |] %4
[M:12/1]"" G8"" G8"" F8"" A8 ^G8"" A8"" A8"" ^G8"" ^G8 ^G8 ^^F8 ^D8 |] %5
[M:8/1]"" A8"" A8"" G8"" G8 G8"" F8"" _G8"" F8 |] %6
[M:11/1]"" A8"" _B8"" A8 c8"" _B8"" _c8"" _B8 _A8 _G8 F8 _E8 |] %7
[M:8/1]"" E8"" F8"" F8"" G8 G8"" F8"" F8"" _E8 |][M:7/1]"" C8"" C8"" C8 C8"" _B,8"" _D8"" _D8 |] %9
[M:9/1]"" E8"" E8"" F8 F8"" F8"" _F8"" _E8"" _E8"" _E8 |] %10
V:3
 E8 E8 ^D8 E8 ^C8 ^D8 ^C8 ^D8 E8 |][M:11/1] E8 E8 E8 ^D8 E8 E8 ^D8 B,8 ^A,8 ^A,8 ^A,8 |] %2
[M:9/1] G8 ^F8 ^F8 E8 ^F8 ^F8 ^F8 ^E8 ^C8 |] E8 D8 D8 ^C8 ^C8 D8 ^C8 B,8 A,8 |] %4
[M:12/1] E8 E8 F8 D8 E8 E8 ^D8 ^D8 E8 E8 ^D8 B,8 |][M:8/1] A,8 F8 F8 E8 C8 C8 C8 _D8 |] %6
[M:11/1] E8 E8 F8 F8 F8 F8 _G8 _E8 _E8 =D8 _B,8 |][M:8/1] C8 C8 D8 E8 C8 C8 _B,8 _B,8 |] %8
[M:7/1] A,8 _B,8 A,8 A,8 _B,8 _C8 _B,8 |][M:9/1] C8 C8 C8 C8 _B,8 _B,8 C8 _B,8 C8 |] %10
V:4
 C8 A,8 B,8 E,8 ^F,8 B,8 =A,8 ^G,8 ^C,8 |] %1
[M:11/1] C8 B,8 A,8 B,8 E,8 ^C,8 ^D,8 ^G,8 ^A,8 ^A,,8 ^D,8 |] %2
[M:9/1] C8 A,8 A,8 G,8 ^F,8 B,8 ^C8 ^C,8 ^F,8 |] C,8 D,8 G,8 E,8 ^F,8 B,,8 ^C,8 C,8 ^F,8 |] %4
[M:12/1] C,8 ^C,8 D,8 F,8 E,8 A,8 ^F,8 ^F,8 E,8 ^C,8 ^D,8 ^G,8 |] %5
[M:8/1] E8 F,8 D,8 C,8 E,8 F,8 _E,8 _D,8 |] %6
[M:11/1] A,8 G,8 F,8 A,8 _B,8 _A,8 _G,8 _A,8 _B,8 _B,,8 _E,8 |] %7
[M:8/1] A,8 F,8 D,8 C,8 E,8 F,8 D,8 _E,8 |][M:7/1] A,8 G,8 F,8 _E,8 _D,8 _D,8 _G,,8 |] %9
[M:9/1] A,8 G,8 F,8 _E,8 _D,8 _D,8 _E,8 _E,8 _A,,8 |] %10

